X:1
T:Abend im Walde
T:Franz Abt
T:Fried. Alb. Schmitt
T:Abend im Walde
T:Dem Neubauer Männergesang-Verein „Sängerlust“ in Wien zugeeignet
T:CPDL - Creative Commons Attribution Non Commercial 3.0
T:CPDL - Creative Commons Attribution Non Commercial 3.0
T:CPDL - Creative Commons Attribution Non Commercial 3.0
T:CPDL - Creative Commons Attribution Non Commercial 3.0
T:CPDL - Creative Commons Attribution Non Commercial 3.0
T:CPDL - Creative Commons Attribution Non Commercial 3.0
T:CPDL - Creative Commons Attribution Non Commercial 3.0
T:CPDL - Creative Commons Attribution Non Commercial 3.0
C:Franz Abt
Z:Fried. Alb. Schmitt
Z:CPDL - Creative Commons Attribution Non Commercial 3.0
%%score 1 [ ( 2 3 ) ( 4 5 ) ]
L:1/8
Q:1/4=90
M:3/4
K:Eb
V:1 treble-8 nm="Solo Tenor I."
V:2 treble-8 nm="Tenor"
V:3 treble-8 
V:4 bass nm="Bass"
V:5 bass 
V:1
"^Gemäßigt" z | z6 | z6 | z6 | z6 | z6 | z6 | z6 | z6 | z6 | z6 | z6 | z6 | z6 | z6 | z6 | %16
w: ||||||||||||||||
w: ||||||||||||||||
"^Solo Ten. I" z2 z B!<(!{/d} c>B!<)! | B>!<(!d f4-!<)! | f3 !>!a !>!g>f |!>(! e2 B!>)! z z2 | %20
w: Die Blät- ter|rau- schen nicht,|_ rings tie- fe|Stil- le.|
w: Nun senkt her-|ab die Nacht|_ den hol- den|Schlei- er|
 z2 z B!<(!{/d} c>B | B>d!<)! f4- | f3 !>!a !>!g>f | e2 B z z2 | z2 z2 | %25
w: Im sü- ßen|A- bend- licht|_ wohnt Se- gens-|fül- le.||
w: und Stern um|Stern ent- facht|_ sein schim- mernd|Feu- er.||
"^Vers 1: \npoco a poco cresc.\nVers 2: pp" e>e | e4 e>=e | f4 B>B |[Q:1/4=90]"^rit." b6- | %29
w: Wel- che|Pracht, Wal- des-|nacht, wel- che|Pracht!|
w: Leis und|lind buhlt der|Wind, leis und|lind.|
 (b2 =a2"^weiter mit Ten. I" _a2) | z6 | z6 | z6 | z6 | z6 | z6 | z6 | z6 | z6 |1 z4 z :|2 z6 || %41
w: _ _ _||||||||||||
w: _ _ _||||||||||||
 z6 | z6 | z6 | z6 | z6 | z6 | z6 | z3 |"^Solo Ten. I"!mf! B{/d}c>B |!<(! B>d!<)! f4- | %51
w: ||||||||Lehr mich es|recht ver- stehn|
w: ||||||||||
 f3 !>!a !>!g>f |!>(! e2 B!>)! z z2 | z2 z B{/d} c>B |!<(! B>d!<)! f4- | f3 !>!a !>!g>f | %56
w: _ dies hol- de|We- ben,|um glück- lich|so zu gehn|_ durchs lau- te|
w: |||||
!>(! e2 B!>)! z z2 | z4!p!"^poco a poco cresc." e>e | e4 e>=e | f4 B>B |[Q:1/4=90]"^rit." b6- | %61
w: Le- ben,|dann her-|ab auf das|Grab, auf das|Grab|
w: |||||
 (b2 =a2"^weiter mit Ten. I" _a2) | z6 | z6 | z6 | z6 | z6 | z6 | z6 | z6 | z6 | z6 | z6 | z6 | %74
w: _ _ _|||||||||||||
w: |||||||||||||
 z6 | z6 | z6 | z4 z |] %78
w: ||||
w: ||||
V:2
!p! G | (G2 A2) c2 |!<(! e4 e2!<)! | (e2 f2) c2 |!>(! e2 d!>)!.d .d.d | e3!pp! .e .=B.d | %6
w: 1.~Der|A- * bend-|son- ne|letz- * te|Strah- len um- ziehn den|Wald mit hel- lem|
w: 2.~Schon|girrt _ die|Tau- be|in _ den|Zwei- gen ein Schlum- mer-|lied den Vö- ge-|
!<(! c4!<)!!mf! g2 | f4!>(! =c2!>)! |"^dim." d4!pp! c_A | (G2 A2) c2 |!<(! e4 e2!<)! | (e2 f2) c2 | %12
w: Saum, mit|hel- lem|Saum; die _|grü- * nen|Wip- fel|küs- * send,|
w: lein, den|Vö- ge-|lein, der _|Nach- * ti-|gal- len|A- * bend-|
!>(! e2 d!>)!d fd | c3!<(! c ^c!<)!c | d3!<(! d e=e!<)! |!f! fg f!>(!f e>!>)!=A | B3 z z2 | %17
w: ma- len sie gold'- ne|Lich- ter in den|Baum, sie gold'- ne|Lich- * * ter in den|Baum.|
w: rei- gen me- lo- disch|hallt im dunk- len|Hain, me- lo- disch|hallt _ _ im dunk- len|Hain.|
 z2 z!pp! B c>B |!<(! B>d!<)! f2 z2 | z2 z!mf! e G>c |!>(! B2 G!>)! z z2 | z2 z!pp! B{/d} c>B | %22
w: Die Blät- ter|rau- schen nicht,|rings tie- fe|Stil- le.|Im sü- ßen|
w: Nun senkt her-|ab die Nacht|den hol- den|Schlei- er|und Stern um|
!<(! B>d!<)! f2 z2 | z2 z!mf! e G>c | B2 G z | z2 | e>e e3 z | f>f f2 B>B | b6- | (b2 =a2 _a2) | %30
w: A- bend- licht|wohnt Se- gens-|fül- le.||Wel- che Pracht,|Wal- des- nacht, wel- che|Pracht!|_ _ _|
w: Stern ent- facht|sein schim- mernd|Feu- er.||Leis und lind|buhlt der Wind, leis und|lind.|_ _ _|
!f! [eg][eg] [eg]2 e2 | dd!>(! d2 B2!>)! |!<(! Be!<)! g^f ag | g>f!>(! d2 B2!>)! | %34
w: Wo die rein- sten|Me- lo- die- en|lei- se durch _ die _|Brust mir zie- hen,|
w: Und der A- bend-|glo- cken Hal- len|ü- ber- tönt _ die _|Nach- ti- gal- len,|
!pp! B>B !>!_c2!>(! e2!>)! |!pp! B>B !>!_c2!>(! e2!>)! |!>(! e4!>)! =A2 |"^cresc." Bc (de a>)g | %38
w: wo die rein- sten|Me- lo- die- en|lei- se,|lei- se durch die Brust mir|
w: und der A- bend-|glo- cken Hal- len|ü- ber-|tönt die Nach- * * ti-|
!>(! (f2 c2!>)! d2) |1 !fermata!e4 z :|2 !fermata!e2 z2 z2 || z!pp! e e2 e2 | e4 e2 | (e2 B2) B2 | %44
w: zie- * *|hen.|len.|O, lass mich|ru- hen,|lass _ mich|
w: gal- * *|len,|||||
 f2 e2 z2 | z f f2 f2 | f4 d2 | e4 e2 | d3 | z3 | z2 z!pp! B{/d} c>B |!<(! B>d!<)! f2 z2 | %52
w: träu- men|in dei- nem|Frie- den,|Wal- des-|nacht.||Lehr mich es|recht ver- stehn|
w: ||||||||
 z2 z!mf! e!>(! G>c!>)! | B2 G z z2 | z2 z!p! B c>B |!<(! B>d!<)! f2 z2 | z2 z!mf! e G>c | %57
w: dies hol- de|We- ben,|um glück- lich|so zu gehn|durchs lau- te|
w: |||||
!>(! B2 G!>)! z z2 |!pp! e>e e3 z | f>f f2 B>B | b6- | (b2 =a2 _a2) |!mf! [eg][eg] [eg]2 e2 | %63
w: Le- ben,|dann her- ab|auf das Grab, auf das|Grab|_ _ _|streu dein Laub dem|
w: ||||||
 d!>(!d d2!>)! B2 |!<(! Be!<)! g^f ag | g>f!>(! d2 B2!>)! |!pp! B>B _c3 e | B>B _c2 e2 | e4 e2 | %69
w: Wan- der- mü- den,|gib mir Frie- * den, _|gib mir Frie- den,|streu dein Laub dem|Wan- der- mü- den,|gib mir|
w: ||||||
 B!<(!c de!<)! a>g | b6 | e2 z2!pp! e>e |!pp! (e4 c2) | B4 z2 |!pp! (B6 |"^verhallend" [df]6) | %76
w: Frie- * * den, gib mir|Frie-|den! Gib mir|Frie- *|den,|Frie-||
w: |||||||
 e6- | e2 z2 z |] %78
w: den!|_|
w: ||
V:3
 G | (G2 A2) A2 | B4 B2 | =A4 A2 | _A2 AA Ad | c3 c G=B | c4 ^c2 | (d2 B2) c2 | (d2 F2) EF | %9
 (G2 A2) A2 | B4 B2 | =A4 A2 | c2 BB BB | B3 B BB | B3 d e^c | d=c dd =c>F | F3 x x2 | x2 x A A>A | %18
 A>A d2 x2 | x2 x B G>=A | B2 G x x2 | x2 x A A>A | A>A d2 x2 | x2 x B G>=A | B2 G x | x2 | %26
 B>=B c3 x | c>^c d2 B>B | !>!e!>!d!>!e!>!g!>!f!>!e | d6 | BG G2 e2 | dF B2 A2 | GB e2 e2 | %33
 d>d A2 B2 | B>B _c2 B2 | B>B _c2 B2 | G4 ^F2 | Gc (BB e>)e | (c4 B2) |1 B4 x :|2 B2 x2 x2 || %41
 x B B2 B2 | c4 c2 | B4 B2 | A2 A2 x2 | x e e2 ce | =d4 B2 | c4 c2 | B3 | x3 | x2 x A A>A | %51
 A>A d2 x2 | x2 x B G>=A | B2 G x x2 | x2 x A A>A | A>A d2 x2 | x2 x B G>=A | B2 G x x2 | %58
 B>=B c3 x | c>^c d2 B>B | !>!e!>!d!>!e!>!g!>!f!>!e | d6 | BG G2 e2 | dF B2 A2 | GB e2 e2 | %65
 d>d A2 B2 | B>B _c3 =A | B>B _c2 =A2 | B4 c2 | B3 B e>e | ([d-g]4 [df]2) | e2 x2 z2 | (c4 A2) | %73
 G4 x2 | (A6 | B6) | B6- | B2 x2 x |] %78
V:4
!p! E, | E,4 E,2 |!<(! E,4 E,2!<)! | C,4 F,2 |!>(! F,2 F,!>)!F, B,A, | G,3!pp! G, F,G, | %6
w: ||||||
!<(! G,4!<)!!mf! B,2 | (B,2!>(! G,2) =A,2!>)! |"^dim." (B,3 =A,)!pp! _A,F, | E,4 E,2 | %10
w: ||||
!<(! E,4 E,2!<)! | C,4 F,2 |!>(! E,2 F,!>)!F, F,F, | G,3!<(! G, G,!<)!G, | F,3!<(! B, B,B,!<)! | %15
w: |||||
!f! B,3!>(! =B, G,>!>)!_E, | D,3 z z2 | z2 z!pp! D, E,>D, |!<(! D,>F,!<)! A,2 z2 | %19
w: ||||
 z2 z!mf! G, E,>^F, |!>(! G,2 E,!>)! z z2 | z2 z!pp! D, E,>D, |!<(! D,>F,!<)! A,2 z2 | %23
w: ||||
 z2 z!mf! G, E,>^F, | G,2 E, z |"^Vers 1: \npoco a\n      poco cresc.\nVers 2: pp" z2 | %26
w: |||
 E,>E, E,3 z | F,>F, F,2 B,>B, | !>!G,!>!^F,!>!G,!>!B,!>!A,!>!G, | (=F,4 B,2) | %30
w: ||||
!f!"^Bass I\nmarc." ED C2 B,2 | B,=A,!>(! _A,2 F,2!>)! |!<(! E,G,!<)! B,=A, CB, | %33
w: |||
 B,>A,!>(! F,2 A,2!>)! |!pp! G,>G, _G,2!>(! =G,2!>)! |!pp! G,>G, _G,2!>(! =G,2!>)! | z2 E,2 E,2 | %37
w: |||lei- se,|
"^cresc." E,A, (F,G, C>)B, |!>(! (=A,4!>)! _A,2) |1 !fermata!G,4 z :|2 %40
w: lei- se, * * * *|||
 !fermata!G,2 z2"^Bass II etwas hervorheben, doch nicht zu stark." z2 || z!pp! G, G,2 G,2 | %42
w: ||
 A,4 A,2 | (A,2 G,2) G,2 | E,2 E,2 z2 | z =A, A,2 A,2 | B,4 B,2 | (B,3 =A,) A,F, | F,3 | z3 | %50
w: ||||||||
 z2 z!pp! D, E,>D, | D,>F, A,2 z2 | z2 z!mf! G, E,>^F, | G,2 E, z z2 | z2 z!p! D, E,>D, | %55
w: |||||
 D,>F, A,2 z2 | z2 z!mf! G, E,>^F, | G,2 E, z z2 |!pp!"^poco a poco cresc." E,>E, E,3 z | %59
w: ||||
 F,>F, F,2 B,>B, | !>!G,!>!^F,!>!G,!>!B,!>!A,!>!G, | (=F,4 B,2) |!mf! ED C2 B,2 | B,=A, _A,2 F,2 | %64
w: |||||
 E,G, B,=A, CB, | B,>_A, F,2 A,2 |!pp! G,>G, _G,3 G, | =G,>G, _G,2 G,2 | =G,4 _G,2 | %69
w: |||||
 =G,A, F,G, C>B, | [A,B,]6 | [G,B,]2 z2!pp! z2 |!pp! E,6 | E,4 z2 |!pp! (D,6 | A,6) | [E,G,]6- | %77
w: ||||||||
 [E,G,]2 z2 z |] %78
w: |
V:5
 E, | (E,2 C,2) A,,2 | G,,4 _G,,2 | F,,4 F,,2 | B,,2 B,,.B,, .B,,.=B,, | C,3 .C, .D,.F, | %6
w: ||||||
w: ||||||
 E,4 =E,2 | F,4 F,,2 | B,,4 C,D, | (E,2 C,2) A,,2 | G,,4 _G,,2 | F,,4 F,,2 | B,,2 B,,B,, D,B,, | %13
w: |||||||
w: |||||||
 E,3 E, =E,E, | F,3 A, G,_G, | F,=E, F,G, C,>F,, | B,,3 x x2 | x2 x B,, B,,>B,, | B,,>B,, B,,2 x2 | %19
w: ||||||
w: ||||||
 x2 x E, E,>E, | E,2 E,, x x2 | x2 x B,, B,,>B,, | B,,>B,, B,,2 x2 | x2 x E, E,>E, | E,2 E,, x | %25
w: ||||||
w: ||||||
 x2 | G,,>G,, A,,3 x | =A,,>A,, B,,2 B,,>B,, | B,,6- | (B,,4 B,2) | E,E, E,2 G,2 | F,F, F,2 B,,2 | %32
w: |||||||
w: |||||||
 B,,B,, B,,2 B,,2 | B,,>B,, B,,2 D,2 | E,>E, !>!E,2 E,,2 | E,>E, !>!E,2 E,,2 | x2 C,2 _C,2 | %37
w: ||||durch die|
w: ||||ü- ber-|
 B,,3 B,, B,,>B,, | B,,6 |1 [E,,E,]4 x :|2 [E,,E,]2 z E, E,E, || E,3 =D, _D,B,, | A,,C, E,A, G,F, | %43
w: Brust, die Brust mir|zie-|hen.|* O, lass mich|ru- hen, lass mich|träu- * men in dei- nem|
w: tönt die Nach- ti-|gal-|len,||||
 E,3 =E, !>!F,>_D, | C,3 E, A,_G, | F,3 =E, _E,C, | B,,=D, F,B, =A,G, | F,F,, G,F, F,F,, | B,,3 | %49
w: Frie- den, Wal- des-|nacht, bis hell sich|dei- ne Blät- ter|säu- * men und dich ge-|schmückt des Herbs- * tes _|Pracht.|
w: ||||||
 x3 | x2 x B,, B,,>B,, | B,,>B,, B,,2 x2 | x2 x E, E,>E, | E,2 E,, x x2 | x2 x C, B,,>B,, | %55
w: ||||||
w: ||||||
 B,,>B,, B,,2 x2 | x2 x E, E,>E, | E,2 E,, x x2 | G,,>G,, A,,3 x | =A,,>A,, B,,2 B,,>B,, | B,,6- | %61
w: ||||||
w: ||||||
 (B,,4 B,2) | E,E, E,2 G,2 | F,F, F,2 B,,2 | B,,B,, B,,2 B,,2 | B,,>B,, B,,2 D,2 | E,>E, E,3 E, | %67
w: ||||||
w: ||||||
 E,>E, E,2 _C,2 | B,,4 =A,,2 | B,,3 B,, B,,>B,, | B,,6 | E,2 x2 E,>E, | (A,,4 C,2) | %73
w: ||||||
w: ||||||
 E,4 !>!C,>B,, | B,,6- | B,,6 | [E,,B,,]6- | [E,,B,,]2 x2 x |] %78
w: * gib mir|Frie-||den!|_|
w: |||||

